packages/crayons-icon/icons/recent.svg

<?xml version="1.0" encoding="UTF-8"?>
<svg width="16px" height="16px" viewBox="0 0 16 16" version="1.1" xmlns="http://www.w3.org/2000/svg" xmlns:xlink="http://www.w3.org/1999/xlink">
    <!-- Generator: Sketch 52.6 (67491) - http://www.bohemiancoding.com/sketch -->
    <title>icon/recent</title>
    <desc>Created with Sketch.</desc>
    <g id="Icons-✅" stroke="none" stroke-width="1" fill="none" fill-rule="evenodd">
        <g id="Icons" transform="translate(-244.000000, -1332.000000)" fill="currentColor">
            <g id="icon/recent" transform="translate(244.000000, 1332.000000)">
                <g id="recent">
                    <path d="M8,1.4564495e-13 C12.418278,1.45915493e-13 16,3.581722 16,8 C16,12.418278 12.418278,16 8,16 C3.581722,16 5.41083001e-16,12.418278 0,8 C-1.24339826e-16,7.61340068 0.313400675,7.3 0.7,7.3 C1.08659932,7.3 1.4,7.61340068 1.4,8 C1.41857618,11.0784504 3.56294789,13.7351929 6.56814688,14.403011 C9.57334587,15.070829 12.6410992,13.5723297 13.9617344,10.79148 C15.2823695,8.0106304 14.5050853,4.68610934 12.088403,2.77905709 C9.67172061,0.872004851 6.25758494,0.888992915 3.86,2.82 L4.81,2.82 C5.19659932,2.82 5.51,3.13340068 5.51,3.52 C5.51,3.90659932 5.19659932,4.22 4.81,4.22 L2.21,4.22 L2.11,4.22 L2,4.22 C1.93594276,4.19455981 1.87544173,4.16094812 1.82,4.12 L1.76,4.12 C1.71602719,4.08736876 1.67869159,4.04663902 1.65,4 C1.59492534,3.96670843 1.54727438,3.9224611 1.51,3.87 C1.50434266,3.82685131 1.50434266,3.78314869 1.51,3.74 C1.50057142,3.69380957 1.50057142,3.64619043 1.51,3.6 L1.51,1 C1.51,0.613400675 1.82340068,0.3 2.21,0.3 C2.59659932,0.3 2.91,0.613400675 2.91,1 L2.91,1.83 C4.33933931,0.641578766 6.14115166,-0.00622410434 8,1.4564495e-13 Z M8,4 C8.38659932,4 8.7,4.31340068 8.7,4.7 L8.7,7.3 L11.3,7.3 C11.6865993,7.3 12,7.61340068 12,8 C12,8.38659932 11.6865993,8.7 11.3,8.7 L8,8.7 C7.61340068,8.7 7.3,8.38659932 7.3,8 L7.3,4.7 C7.3,4.31340068 7.61340068,4 8,4 Z" id="Combined-Shape"></path>
                </g>
            </g>
        </g>
    </g>
</svg>

<svg viewBox="0 0 16 16"><path d="M8 0a8 8 0 1 1-8 8 .7.7 0 0 1 1.4 0 6.6 6.6 0 1 0 2.46-5.18h.95a.7.7 0 0 1 0 1.4H2a.8.8 0 0 1-.18-.1h-.06A.43.43 0 0 1 1.65 4a.47.47 0 0 1-.14-.13.5.5 0 0 1 0-.13.35.35 0 0 1 0-.14V1a.7.7 0 0 1 1.4 0v.83A7.92 7.92 0 0 1 8 0zm0 4a.7.7 0 0 1 .7.7v2.6h2.6a.7.7 0 0 1 0 1.4H8a.7.7 0 0 1-.7-.7V4.7A.7.7 0 0 1 8 4z" fill="currentColor" fill-rule="evenodd"/></svg>
